assets/icons/functional/office&editing/briefcase.svg

<svg width="32" height="32" viewBox="0 0 32 32" fill="none" xmlns="http://www.w3.org/2000/svg"><g id="Icon-Briefcase"><g clip-path="url(#clip0_12_2046)"><g id="size=md (32px)"><g id="Briefcase"><path id="Vector" d="M27 9H5C4.44772 9 4 9.44772 4 10V26C4 26.5523 4.44772 27 5 27H27C27.5523 27 28 26.5523 28 26V10C28 9.44772 27.5523 9 27 9Z" stroke="#101828" stroke-width="2" stroke-linecap="round" stroke-linejoin="round"/><path id="Vector_2" d="M21 9V7C21 6.46957 20.7893 5.96086 20.4142 5.58579C20.0391 5.21071 19.5304 5 19 5H13C12.4696 5 11.9609 5.21071 11.5858 5.58579C11.2107 5.96086 11 6.46957 11 7V9" stroke="#101828" stroke-width="2" stroke-linecap="round" stroke-linejoin="round"/><path id="Vector_3" d="M28 15.7876C24.3529 17.8969 20.2132 19.0051 16 19.0001C11.7861 19.0111 7.64484 17.9024 4 15.7876" stroke="#101828" stroke-width="2" stroke-linecap="round" stroke-linejoin="round"/><path id="Vector_4" d="M14.5 15H17.5" stroke="#101828" stroke-width="2" stroke-linecap="round" stroke-linejoin="round"/></g></g></g></g><defs><clipPath id="clip0_12_2046"><rect width="32" height="32" rx="5" fill="white"/></clipPath></defs></svg>

<svg xmlns="http://www.w3.org/2000/svg" width="32" height="32" fill="none"><g clip-path="url(#a)" stroke="#101828" stroke-linecap="round" stroke-linejoin="round" stroke-width="2"><path d="M27 9H5a1 1 0 0 0-1 1v16a1 1 0 0 0 1 1h22a1 1 0 0 0 1-1V10a1 1 0 0 0-1-1Zm-6 0V7a2 2 0 0 0-2-2h-6a2 2 0 0 0-2 2v2"/><path d="M28 15.787A23.912 23.912 0 0 1 16 19a23.789 23.789 0 0 1-12-3.213M14.5 15h3"/></g><defs><clipPath id="a"><rect width="32" height="32" fill="#fff" rx="5"/></clipPath></defs></svg>
